Papirus/48x48/apps/filen.svg

<svg width="48" height="48" version="1.1" xmlns="http://www.w3.org/2000/svg">
 <circle cx="24" cy="25.000002" r="20" style="opacity:.2"/>
 <circle cx="24" cy="24" r="20" style="fill:#444444"/>
 <path d="m24 7c-9.941384 0-18 8.058616-18 18 0 9.941383 8.058616 18 18 18s18-8.058617 18-18c0-9.941384-8.058616-18-18-18zm0.02344 2c2.473574 0.0488357 4.826578 0.221598 6.97656 1.462891v8.537109h-16v3.273438a2 2 0 0 0-1 1.726562 2 2 0 0 0 2 2 2 2 0 0 0 2-2 2 2 0 0 0-1-1.730469v-1.269531h16v-9.380859c2.738006 2.045779 4.490043 4.138768 5.701172 6.992187 0.946421 2.239235 1.298828 4.313918 1.298828 6.388672h-9v14.388672c-0.966691 0.575096-1.822463 0.921514-3 1.205078v-11.867188a2 2 0 0 0 1-1.726562 2 2 0 0 0-2-2 2 2 0 0 0-2 2 2 2 0 0 0 1 1.726562v12.169922c-0.782991 0.114391-1.208699 0.102301-2 0.103516-3.015449 0.0046-4.403574-0.670065-6-1.445312v-9.554688h1.273438a2 2 0 0 0 1.726562 1 2 2 0 0 0 2-2 2 2 0 0 0-2-2 2 2 0 0 0-1.726562 1h-3.273438v10.849609c-1.277168-0.775602-2.710204-1.967185-4-3.703125v-20.146484h12.273438a2 2 0 0 0 1.726562 1 2 2 0 0 0 2-2 2 2 0 0 0-2-2 2 2 0 0 0-1.726562 1h-11.00586c3.439305-2.954321 7.788516-4 10.75586-4zm-14.031252 7.800781 0.0078125 16.398438c-0.5783213-1.349639-2-5.181766-2-8.199219s1.1504711-6.21009 1.9921875-8.199219zm23.007812 10.199219h6.912109c-0.736338 6.63175-5.057844 9.936709-6.912109 11.205078z" style="opacity:.2"/>
 <path d="m24 6c-9.941384 0-18 8.058616-18 18 0 9.941383 8.058616 18 18 18s18-8.058617 18-18c0-9.941384-8.058616-18-18-18zm0.023438 2c2.473576 0.0488357 4.82658 0.221598 6.976562 1.4628906v8.5371094h-16v3.273438a2 2 0 0 0-1 1.726562 2 2 0 0 0 2 2 2 2 0 0 0 2-2 2 2 0 0 0-1-1.730469v-1.269531h16v-9.380859c2.738006 2.045779 4.490043 4.138768 5.701172 6.992187 0.946421 2.239235 1.298828 4.313918 1.298828 6.388672h-9v14.388672c-0.966691 0.575096-1.822463 0.921514-3 1.205078v-11.867188a2 2 0 0 0 1-1.726562 2 2 0 0 0-2-2 2 2 0 0 0-2 2 2 2 0 0 0 1 1.726562v12.169922c-0.782991 0.114391-1.208699 0.102301-2 0.103516-3.015449 0.0046-4.403574-0.670065-6-1.445312v-9.554688h1.273438a2 2 0 0 0 1.726562 1 2 2 0 0 0 2-2 2 2 0 0 0-2-2 2 2 0 0 0-1.726562 1h-3.273438v10.849609c-1.277168-0.775602-2.710204-1.967185-4-3.703125v-20.146484h12.273438a2 2 0 0 0 1.726562 1 2 2 0 0 0 2-2 2 2 0 0 0-2-2 2 2 0 0 0-1.726562 1h-11.00586c3.439305-2.9543207 7.788516-4 10.75586-4zm-14.03125 7.800781 0.0078125 16.398438c-0.5783213-1.349639-2-5.181766-2-8.199219s1.1504711-6.21009 1.9921875-8.199219zm23.007812 10.199219h6.912109c-0.736338 6.63175-5.057844 9.936709-6.912109 11.205078v-11.205078z" style="fill:#e4e4e4"/>
 <path d="m24 6c-9.941384 0-18 8.058616-18 18 0 0.167779 0.0071578 0.333323 0.0117188 0.5 0.2656878-9.709398 8.2146762-17.5 17.988281-17.5s17.722593 7.790602 17.988281 17.5c0.004561-0.166677 0.011719-0.332221 0.011719-0.5 0-9.941384-8.058616-18-18-18zm2 5a2 2 0 0 0-1.726562 1h-9.705079c-0.44432 0.306159-0.879548 0.638166-1.300781 1h11.00586a2 2 0 0 1 1.726562-1 2 2 0 0 1 1.916016 1.425781 2 2 0 0 0 0.083984-0.425781 2 2 0 0 0-2-2zm-11 7v1h16v-1h-16zm2 3.269531v1a2 2 0 0 1 0.90625 1.201172 2 2 0 0 0 0.09375-0.470703 2 2 0 0 0-1-1.730469zm-2 0.003907a2 2 0 0 0-1 1.726562 2 2 0 0 0 0.09375 0.472656 2 2 0 0 1 0.90625-1.199218v-1zm12 2.726562a2 2 0 0 0-2 2 2 2 0 0 0 0.09375 0.527344 2 2 0 0 1 1.90625-1.527344 2 2 0 0 1 1.921875 1.443359 2 2 0 0 0 0.078125-0.443359 2 2 0 0 0-2-2zm4 0v1h9c0-0.332808-0.01407-0.666516-0.033203-1h-8.966797zm-22.982422 0.601562c-0.0042942 0.132762-0.0175781 0.266233-0.0175781 0.398438 0 3.017453 1.4216787 6.84958 2 8.199219v-1c-1.719e-4 -4.01e-4 1.72e-4 -0.001552 0-0.001953-0.540798-1.262356-1.8177444-4.690097-1.9824219-7.595704zm12.982422 1.398438a2 2 0 0 0-1.726562 1h-3.273438v1h3.273438a2 2 0 0 1 1.726562-1 2 2 0 0 1 1.916016 1.425781 2 2 0 0 0 0.083984-0.425781 2 2 0 0 0-2-2zm18.763672 1c-1.035343 5.96382-5.00559 9.002501-6.763672 10.205078v1c1.854265-1.268369 6.175771-4.573328 6.912109-11.205078h-0.148437zm-27.763672 7.146484v1c1.289796 1.73594 2.722832 2.927523 4 3.703125v-1c-1.277168-0.775602-2.710204-1.967185-4-3.703125zm19 4.242188c-0.966691 0.575096-1.822463 0.921514-3 1.205078v1c1.177537-0.283564 2.033309-0.629982 3-1.205078v-1zm-13 0.166016v1c1.596426 0.775247 2.984551 1.449912 6 1.445312 0.791301-0.001215 1.217009 0.010875 2-0.103516v-1c-0.782991 0.114391-1.208699 0.102301-2 0.103516-3.015449 0.0046-4.403574-0.670065-6-1.445312z" style="fill:#ffffff;opacity:.2"/>
 <path d="M 24,4 A 20,20 0 0 0 4,24 20,20 0 0 0 4.0351563,24.5 20,20 0 0 1 24,5 20,20 0 0 1 43.982422,24.25 20,20 0 0 0 44,24 20,20 0 0 0 24,4 Z" style="fill:#ffffff;opacity:.1"/>
</svg>

<svg xmlns="http://www.w3.org/2000/svg" width="48" height="48" version="1.1">
 <circle style="opacity:0.2" cx="24" cy="25" r="20"/>
 <circle style="fill:#444444" cx="24" cy="24" r="20"/>
 <g style="opacity:0.1" transform="translate(0,1)">
  <path d="M 31,9 V 18 H 15 V 23 H 17 V 20 H 33 V 10 Z M 10,14 V 34 L 12,35 V 14 H 26 V 12 H 12 Z M 31,24 V 39 L 33,38 V 26 H 41 V 24 Z M 26,26 V 41 L 28,40 V 26 Z M 16,27 V 39 L 18,40 V 29 H 21 V 27 Z"/>
  <path d="M 24,6 A 18,18 0 0 0 6,24 18,18 0 0 0 24,42 18,18 0 0 0 42,24 18,18 0 0 0 24,6 Z M 24,8 A 16,16 0 0 1 40,24 16,16 0 0 1 24,40 16,16 0 0 1 8,24 16,16 0 0 1 24,8 Z"/>
  <circle cx="26" cy="13" r="2"/>
  <circle cx="27" cy="26" r="2"/>
  <circle cx="21" cy="28" r="2"/>
  <circle cx="16" cy="23" r="2"/>
 </g>
 <path style="fill:#e4e4e4" d="M 31,9 V 18 H 15 V 23 H 17 V 20 H 33 V 10 Z M 10,14 V 34 L 12,35 V 14 H 26 V 12 H 12 Z M 31,24 V 39 L 33,38 V 26 H 41 V 24 Z M 26,26 V 41 L 28,40 V 26 Z M 16,27 V 39 L 18,40 V 29 H 21 V 27 Z"/>
 <path style="fill:#e4e4e4" d="M 24,6 A 18,18 0 0 0 6,24 18,18 0 0 0 24,42 18,18 0 0 0 42,24 18,18 0 0 0 24,6 Z M 24,8 A 16,16 0 0 1 40,24 16,16 0 0 1 24,40 16,16 0 0 1 8,24 16,16 0 0 1 24,8 Z"/>
 <circle style="fill:#e4e4e4" cx="26" cy="13" r="2"/>
 <circle style="fill:#e4e4e4" cx="27" cy="26" r="2"/>
 <circle style="fill:#e4e4e4" cx="21" cy="28" r="2"/>
 <circle style="fill:#e4e4e4" cx="16" cy="23" r="2"/>
 <path style="fill:#ffffff;opacity:0.1" d="M 24 4 A 20 20 0 0 0 4 24 A 20 20 0 0 0 4.0352 24.5 A 20 20 0 0 1 24 5 A 20 20 0 0 1 43.982 24.25 A 20 20 0 0 0 44 24 A 20 20 0 0 0 24 4 z"/>
 <path style="fill:#ffffff;opacity:0.2" d="M 24 6 A 18 18 0 0 0 6 24 A 18 18 0 0 0 6.0352 24.5 A 18 18 0 0 1 24 7 A 18 18 0 0 1 41.982 24.254 A 18 18 0 0 0 42 24 A 18 18 0 0 0 24 6 z M 26 11 A 2 2 0 0 0 24.273 12 L 14.803 12 A 16 16 0 0 0 13.49 13 L 24.273 13 A 2 2 0 0 1 26 12 A 2 2 0 0 1 27.916 13.426 A 2 2 0 0 0 28 13 A 2 2 0 0 0 26 11 z M 15 18 L 15 19 L 31 19 L 31 18 L 15 18 z M 17 21.27 L 17 22.27 A 2 2 0 0 1 17.906 23.471 A 2 2 0 0 0 18 23 A 2 2 0 0 0 17 21.27 z M 15 21.273 A 2 2 0 0 0 14 23 A 2 2 0 0 0 14.094 23.473 A 2 2 0 0 1 15 22.273 L 15 21.273 z M 27 24 A 2 2 0 0 0 25 26 A 2 2 0 0 0 25.094 26.527 A 2 2 0 0 1 27 25 A 2 2 0 0 1 28.922 26.443 A 2 2 0 0 0 29 26 A 2 2 0 0 0 27 24 z M 31 24 L 31 25 L 40 25 A 16 16 0 0 0 39.93 24 L 31 24 z M 8.0332 24.5 A 16 16 0 0 0 8 25 A 16 16 0 0 0 10 32.682 L 10 31.682 A 16 16 0 0 1 8.0332 24.5 z M 21 26 A 2 2 0 0 0 19.273 27 L 16 27 L 16 28 L 19.273 28 A 2 2 0 0 1 21 27 A 2 2 0 0 1 22.916 28.426 A 2 2 0 0 0 23 28 A 2 2 0 0 0 21 26 z M 39.643 27 A 16 16 0 0 1 33 37.191 L 33 38.191 A 16 16 0 0 0 39.842 27 L 39.643 27 z M 12 34.51 L 12 35.51 A 16 16 0 0 0 16 38.805 L 16 37.805 A 16 16 0 0 1 12 34.51 z M 31 38.365 A 16 16 0 0 1 28 39.443 L 28 40.443 A 16 16 0 0 0 31 39.365 L 31 38.365 z M 18 38.779 L 18 39.779 A 16 16 0 0 0 24 41 A 16 16 0 0 0 26 40.842 L 26 39.842 A 16 16 0 0 1 24 40 A 16 16 0 0 1 18 38.779 z"/>
</svg>
